X: 15274
T: Girl Who Broke My Heart, The
R: reel
M: 4/4
K: Aminor
ed|cAGE FA,DF|EAA^G ABcd|eage dcAG|EGG^F G3B|
cBAG FEDF|E~A3 ABcd|eage dcAG|EAAG A3 c|
cBAG FEDF|EAA^G ABcd|eage dcAG|EGG^F G3B|
cBAG FEDF|E~A3 ABcd|eage dcAG|EAAG A3 c|
|:A2ce aecA|G2Bd gdB^G|A2ce aecd|e3f edcB|
ABce aecA|GABd gdB^G|ABce dcAG|EAA^G A4:|

